fs/text_add_t_24_regular.svg

<svg viewBox="0 0 24 24" fill="none" xmlns="http://www.w3.org/2000/svg" height="1em" width="1em">
  <path d="M4 4.75C4 4.33579 4.33579 4 4.75 4H17.25C17.6642 4 18 4.33579 18 4.75V6.75C18 7.16421 17.6642 7.5 17.25 7.5C16.8358 7.5 16.5 7.16421 16.5 6.75V5.5H11.75L11.75 14.4661C11.2711 15.3718 11 16.4042 11 17.5C11 18.3859 11.1772 19.2304 11.4982 20H8.75C8.33579 20 8 19.6642 8 19.25C8 18.8358 8.33579 18.5 8.75 18.5H10.25L10.25 5.5H5.5V6.75C5.5 7.16421 5.16421 7.5 4.75 7.5C4.33579 7.5 4 7.16421 4 6.75V4.75ZM23 17.5C23 14.4624 20.5376 12 17.5 12C14.4624 12 12 14.4624 12 17.5C12 20.5376 14.4624 23 17.5 23C20.5376 23 23 20.5376 23 17.5ZM18.0006 18L18.0011 20.5035C18.0011 20.7797 17.7773 21.0035 17.5011 21.0035C17.225 21.0035 17.0011 20.7797 17.0011 20.5035L17.0006 18H14.4956C14.2197 18 13.9961 17.7762 13.9961 17.5C13.9961 17.2239 14.2197 17 14.4956 17H17.0005L17 14.4993C17 14.2231 17.2239 13.9993 17.5 13.9993C17.7761 13.9993 18 14.2231 18 14.4993L18.0005 17H20.4966C20.7725 17 20.9961 17.2239 20.9961 17.5C20.9961 17.7762 20.7725 18 20.4966 18H18.0006Z" fill="#212121"/>
</svg>

<svg viewBox="0 0 24 24" fill="none" xmlns="http://www.w3.org/2000/svg" height="1em" width="1em">
  <path d="M4 4.75A.75.75 0 0 1 4.75 4h12.5a.75.75 0 0 1 .75.75v2a.75.75 0 0 1-1.5 0V5.5h-4.75v8.966A6.471 6.471 0 0 0 11 17.5c0 .886.177 1.73.498 2.5H8.75a.75.75 0 0 1 0-1.5h1.5v-13H5.5v1.25a.75.75 0 0 1-1.5 0v-2ZM23 17.5a5.5 5.5 0 1 0-11 0 5.5 5.5 0 0 0 11 0Zm-5 .5.001 2.503a.5.5 0 1 1-1 0V18h-2.505a.5.5 0 0 1 0-1H17v-2.5a.5.5 0 1 1 1 0V17h2.497a.5.5 0 0 1 0 1H18Z" fill="#212121"/>
</svg>
